X:137
T:Maggie in the Woods
M:2/4
L:1/16
R:Polka
Z:There are some slightly rowdy lyrics on early Chieftains album
K:G
|:"G"G2D2 G3A|"Em"B2e2 efge|"G"d2B2 BAGA|"D"B2A2 AcBA|"G"G2D2 G3A|"Em"B2e2 efge|"G"d2B2 "D"A2BA|1"G"G4G2A2:|2G4"G"G3d|!
|:"G"g3f "Em"e2d2|"C"e2f2 g3e|"G"d2B2 BAGA|"D"B2A2 A3d|"G"g3f "Em"e2d2|"C"e2f2 g3e|"G"d2B2"D"A2BA|1"G"G4G2ef:|2"G"G4 G2A2||

